X: 6
T: Waterford
R: waltz
M: 3/4
L: 1/8
K: Dmaj
FG|A2 A2 d2|B4 ed|cB AB cA|d2 f2 a2|
A2 A2 d2|B4 ed|cB AB cA|d4:|
ef|ge ce ge|fd Ad fd|ce ge cA|d2 f2 af|
ge ce ge|fd Ad fd|ce ge cA|d4:|
FG|Ad Fd Ad|(3Bcd Gd Bd|ce ge cA|df af d2|
Ad Fd Ad|(3Bcd Gd Bd|ce ge cA|e2 d2:|
FG|A2 AB cd|B2 Gf ag|fd ge dc|ed cB AF|
A2 AB cd|B2 Gf ag|fd ge dc|d2 d2:|

